X: 213
T:Mirabilia testimonia tua Domine / Justus est, Domine
N: Derived from Jos1801-Mirabilia_testimonia_tua_Domine.krn
C: Josquin des Prez
%%abc-version 2.0
%%abcx-abcm2ps-target-version 5.9.1 (29 Sep 2008)
%%abc-creator hum2abc beta
%%abcx-conversion-date 2019/02/12 16:15:48
%%abc-edited-by Jesse Rodin
%%abc-edited-by Joel Chapman 2012/1/20
%%abcx-initial-encoding-date 2012/01/20/
%%humdrum-veritas 83092776
%%humdrum-veritas-data 190965863
%%linebreak <none>
%%barnumbers 0
L: 1/4
M: 2/1
Q: 1/2=120
%%staves [1 2 3 4]
V: 1 clef=treble
V: 2 clef=treble-8
V: 3 clef=treble-8
V: 4 clef=bass
K: C
[V:1] z8 | 
[V:2] d8 | 
[V:3] z8 | 
[V:4] z8 | 
[V:1] A8 | 
[V:2] f6ed | 
[V:3] z8 | 
[V:4] z8 | 
[V:1] c6BA | 
[V:2] e4f4 | 
[V:3] z8 | 
[V:4] z8 | 
[V:1] B4c4 | 
[V:2] g2e4f2- | 
[V:3] z8 | 
[V:4] z8 | 
[V:1] d2B4c2- | 
[V:2] fde4c2 | 
[V:3] z8 | 
[V:4] z8 | 
[V:1] cAB4G2 | 
[V:2] d4e4 | 
[V:3] z8 | 
[V:4] z8 | 
[V:1] A4B4 | 
[V:2] f2d4e2 | 
[V:3] z8 | 
[V:4] z8 | 
[V:1] c2A4B2 | 
[V:2] A3Bc2d2 | 
[V:3] z8 | 
[V:4] z8 | 
[V:1] E3FG2A2 | 
[V:2] c3decf2 | 
[V:3] z8 | 
[V:4] z8 | 
[V:1] G2F2E4 | 
[V:2] e2d4^c2 | 
[V:3] z8 | 
[V:4] z8 | 
[V:1] D8 | 
[V:2] d4z4 | 
[V:3] z8 | 
[V:4] D,8 | 
[V:1] z8 | 
[V:2] z8 | 
[V:3] A8 | 
[V:4] D,4C,4 | 
[V:1] z8 | 
[V:2] z8 | 
[V:3] A4G4 | 
[V:4] D,4B,,2C,2- | 
[V:1] z8 | 
[V:2] z8 | 
[V:3] A4F2G2- | 
[V:4] C,2D,4E,2- | 
[V:1] z8 | 
[V:2] z8 | 
[V:3] G2A3FF2 | 
[V:4] E,C,C,2D,3B,, | 
[V:1] z8 | 
[V:2] z8 | 
[V:3] G4A4 | 
[V:4] B,,2C,4D,2- | 
[V:1] z8 | 
[V:2] z8 | 
[V:3] B3GG2A2- | 
[V:4] D,2E,4F,2 | 
[V:1] z8 | 
[V:2] z8 | 
[V:3] A2B4c2- | 
[V:4] D,4E,4 | 
[V:1] z8 | 
[V:2] z8 | 
[V:3] cBAGF2G2- | 
[V:4] F,3E,D,C,B,,2- | 
[V:1] z8 | 
[V:2] z8 | 
[V:3] GFD2E4 | 
[V:4] B,,A,,D,3^C,C,2 | 
[V:1] A6A2 | 
[V:2] f6f2 | 
[V:3] D4z2d2- | 
[V:4] D,4z2D,2- | 
[V:1] A4A4 | 
[V:2] f4f4 | 
[V:3] d2d2d2d2 | 
[V:4] D,2D,2D,2D,2 | 
[V:1] c6A2 | 
[V:2] e6f2 | 
[V:3] c8 | 
[V:4] A,8 | 
[V:1] B4c4 | 
[V:2] g4e4 | 
[V:3] d2e4c2- | 
[V:4] G,4A,4 | 
[V:1] A3Bc2d2- | 
[V:2] f2a4g2 | 
[V:3] c2f2e2d2 | 
[V:4] F,3G,A,2_B,2 | 
[V:1] d2^cBc4 | 
[V:2] a8 | 
[V:3] e8 | 
[V:4] A,8 | 
[V:1] d6d2 | 
[V:2] f4z2f2- | 
[V:3] d6d2 | 
[V:4] _B,6B,2 | 
[V:1] d4d4 | 
[V:2] f2g2f2g2 | 
[V:3] d4d4 | 
[V:4] _B,4B,4 | 
[V:1] c2A4c2 | 
[V:2] a4z4 | 
[V:3] e2f4e2 | 
[V:4] A,4z4 | 
[V:1] B2A4^G2 | 
[V:2] z8 | 
[V:3] d2c2B4 | 
[V:4] z8 | 
[V:1] A4z4 | 
[V:2] f2d3ef2 | 
[V:3] A4z4 | 
[V:4] D,3E,F,G,A,2 | 
[V:1] z8 | 
[V:2] e2d4^c2 | 
[V:3] z8 | 
[V:4] G,2F,2E,4 | 
[V:1] F2D3EF2 | 
[V:2] d4A2c2- | 
[V:3] D3EFGA2 | 
[V:4] D,6A,,2 | 
[V:1] E2D3^CC2 | 
[V:2] c2A2A4 | 
[V:3] G2F2E4 | 
[V:4] C,2D,2A,,4 | 
[V:1] D8 | 
[V:2] A8 | 
[V:3] D8 | 
[V:4] D,4F,4- | 
[V:1] z8 | 
[V:2] z2d4c2 | 
[V:3] z8 | 
[V:4] F,2E,D,E,4 | 
[V:1] z8 | 
[V:2] d4e4 | 
[V:3] z8 | 
[V:4] z2D,4C,2 | 
[V:1] z2A4G2 | 
[V:2] f4e4 | 
[V:3] z8 | 
[V:4] D,4E,4 | 
[V:1] A4B4 | 
[V:2] c4z4 | 
[V:3] z2A4G2 | 
[V:4] F,4E,4 | 
[V:1] c4B4 | 
[V:2] z8 | 
[V:3] A4B4 | 
[V:4] C,4z4 | 
[V:1] G4z4 | 
[V:2] e4g4- | 
[V:3] c4B4 | 
[V:4] z4E,4 | 
[V:1] B4d4- | 
[V:2] g2fed4- | 
[V:3] G4z4 | 
[V:4] G,6F,E, | 
[V:1] d2cBA4- | 
[V:2] d2e2f4- | 
[V:3] B4d4- | 
[V:4] D,6E,2 | 
[V:1] A2B2c2B2- | 
[V:2] f2edc2e2- | 
[V:3] d2cBA2B2 | 
[V:4] F,6G,2 | 
[V:1] B2A3^GG2 | 
[V:2] e2f2e4 | 
[V:3] c2d2B4 | 
[V:4] A,2D,2E,4 | 
[V:1] A8- | 
[V:2] c2f2e4 | 
[V:3] A8 | 
[V:4] A,,2D,4C,2 | 
[V:1] A8 | 
[V:2] f4e4 | 
[V:3] z2d4c2 | 
[V:4] D,4A,4 | 
[V:1] z2A4G2 | 
[V:2] z2A2B4 | 
[V:3] d4e4 | 
[V:4] F,4E,4 | 
[V:1] A4B4 | 
[V:2] A4d2B2 | 
[V:3] c2d4e2- | 
[V:4] F,4G,4 | 
[V:1] G2A4B2- | 
[V:2] c4d3c | 
[V:3] e2f4d2 | 
[V:4] E,2A,2F,2G,2- | 
[V:1] B2c4A2 | 
[V:2] B2A4a2- | 
[V:3] e4f4 | 
[V:4] G,2A,4F,2 | 
[V:1] B4c4 | 
[V:2] agg4f2 | 
[V:3] e2d4c2 | 
[V:4] G,4A,4 | 
[V:1] B2A4G2 | 
[V:2] g2d2e4 | 
[V:3] d2A2B4 | 
[V:4] G,2F,2E,4 | 
[V:1] A2E2F4 | 
[V:2] c2c2A2B2 | 
[V:3] A2G4F2 | 
[V:4] F,2C,2D,4 | 
[V:1] E2D4^C2 | 
[V:2] c2G2A4 | 
[V:3] G2D2E4 | 
[V:4] C,2B,,2A,,4 | 
[V:1] D8 | 
[V:2] A8 | 
[V:3] D8 | 
[V:4] z2D,2F,4 | 
[V:1] z4D4 | 
[V:2] z8 | 
[V:3] z8 | 
[V:4] E,4D,4 | 
[V:1] F4E4 | 
[V:2] z2A2c4 | 
[V:3] z8 | 
[V:4] A,8 | 
[V:1] D4A4 | 
[V:2] B4A4 | 
[V:3] z8 | 
[V:4] z8 | 
[V:1] G2c4A2 | 
[V:2] e4f4 | 
[V:3] z8 | 
[V:4] z8 | 
[V:1] A2B3AGF | 
[V:2] d4e3d | 
[V:3] z8 | 
[V:4] z8 | 
[V:1] E2c4BA | 
[V:2] cBA4e2 | 
[V:3] z8 | 
[V:4] z8 | 
[V:1] B2A4^G2 | 
[V:2] d2c2B4 | 
[V:3] z8 | 
[V:4] z8 | 
[V:1] A4z4 | 
[V:2] A4z4 | 
[V:3] z4A4 | 
[V:4] D,4F,4 | 
[V:1] z8 | 
[V:2] z8 | 
[V:3] c4B4 | 
[V:4] E,4D,3E, | 
[V:1] z8 | 
[V:2] z8 | 
[V:3] A3Bcde2- | 
[V:4] F,G,A,3G,E,2 | 
[V:1] z8 | 
[V:2] z8 | 
[V:3] e2d4^c2 | 
[V:4] F,2G,2E,4 | 
[V:1] z4A4 | 
[V:2] z2d2f4 | 
[V:3] d8 | 
[V:4] D,8 | 
[V:1] c4B4 | 
[V:2] e4d3e | 
[V:3] z8 | 
[V:4] z8 | 
[V:1] A3Bcde2- | 
[V:2] fga3ge2 | 
[V:3] z8 | 
[V:4] z8 | 
[V:1] e2d3^cc2 | 
[V:2] f2g2e4 | 
[V:3] z8 | 
[V:4] z8 | 
[V:1] d8 | 
[V:2] d4z4 | 
[V:3] z4d4- | 
[V:4] G,6F,E, | 
[V:1] z8 | 
[V:2] z8 | 
[V:3] d2cBA2B2 | 
[V:4] D,2E,2F,4- | 
[V:1] z8 | 
[V:2] z8 | 
[V:3] c6BA | 
[V:4] F,2E,D,E,2D,2- | 
[V:1] z8 | 
[V:2] z8 | 
[V:3] B2A4^G2 | 
[V:4] D,2C,2B,,4 | 
[V:1] c4B2A2- | 
[V:2] c3de2f2- | 
[V:3] A4z4 | 
[V:4] A,,4z4 | 
[V:1] AGFEF2F2 | 
[V:2] fee3dd2 | 
[V:3] z8 | 
[V:4] z8 | 
[V:1] E4z4 | 
[V:2] e4z4 | 
[V:3] c4B2A2- | 
[V:4] C,3D,E,2F,2- | 
[V:1] z8 | 
[V:2] z8 | 
[V:3] AGFEF4 | 
[V:4] F,2E,4D,2 | 
[V:1] z8 | 
[V:2] z8 | 
[V:3] E2A4G2- | 
[V:4] E,2A,,B,,C,D,E,2- | 
[V:1] z8 | 
[V:2] z8 | 
[V:3] GFEDE4 | 
[V:4] E,2D,4^C,2 | 
[V:1] A4G2F2- | 
[V:2] f4e2dc | 
[V:3] D4z4 | 
[V:4] D,2A,,2C,2D,2- | 
[V:1] FDE2D4 | 
[V:2] BAA3GG2 | 
[V:3] z8 | 
[V:4] D,A,,C,2B,,4 | 
[V:1] C3DE2F2 | 
[V:2] A2c4A2 | 
[V:3] z2A2G2F2 | 
[V:4] A,,3B,,C,2D,2 | 
[V:1] E2D4^C2 | 
[V:2] cBAGA4 | 
[V:3] G2F2E4 | 
[V:4] C,2D,2A,,4 | 
[V:1] D8 | 
[V:2] A4B4 | 
[V:3] D8 | 
[V:4] D,4z4 | 
[V:1] z8 | 
[V:2] A4d4 | 
[V:3] z8 | 
[V:4] A,,4B,,4 | 
[V:1] E4F4 | 
[V:2] c3BA4 | 
[V:3] z8 | 
[V:4] A,,4D,4 | 
[V:1] E4A4 | 
[V:2] z8 | 
[V:3] E4F4 | 
[V:4] C,3B,,A,,4 | 
[V:1] G3FE4 | 
[V:2] z8 | 
[V:3] E4A4 | 
[V:4] z8 | 
[V:1] z8 | 
[V:2] d4e4 | 
[V:3] G3FE4 | 
[V:4] z8 | 
[V:1] z8 | 
[V:2] d4g4 | 
[V:3] z8 | 
[V:4] D,4E,4 | 
[V:1] A4B4 | 
[V:2] f3ed3e | 
[V:3] z8 | 
[V:4] D,4G,4 | 
[V:1] A4d4 | 
[V:2] f2a3gg2 | 
[V:3] A4B4 | 
[V:4] F,3E,D,2E,2 | 
[V:1] c3BA4 | 
[V:2] a4f4 | 
[V:3] A4d4 | 
[V:4] F,6D,2 | 
[V:1] z4c4- | 
[V:2] e2d4f2- | 
[V:3] c3BA2GF | 
[V:4] A,3G,F,2E,D, | 
[V:1] c2B2A4- | 
[V:2] f2e2f3e | 
[V:3] G2G2F4- | 
[V:4] C,4D,4- | 
[V:1] A2G2F2F2 | 
[V:2] dcc4B2 | 
[V:3] F2E2F4 | 
[V:4] D,2E,2D,4 | 
[V:1] E8- | 
[V:2] c6B2 | 
[V:3] G4A4- | 
[V:4] C,4C4- | 
[V:1] E8 | 
[V:2] A6G2 | 
[V:3] A4c4- | 
[V:4] C2B,2A,4- | 
[V:1] c6BA | 
[V:2] F4c3d | 
[V:3] c2B2A3B | 
[V:4] A,2G,2F,2F,2 | 
[V:1] G2A4G2 | 
[V:2] e8 | 
[V:3] c4B4 | 
[V:4] E,8 | 
[V:1] A8- | 
[V:2] c6d2 | 
[V:3] A4z2A2- | 
[V:4] F,6E,D, | 
[V:1] A8 | 
[V:2] e8 | 
[V:3] A2GFE4 | 
[V:4] C,2D,4^C,2 | 
[V:1] z2A2_B2A2 | 
[V:2] A4z4 | 
[V:3] F4z2A2 | 
[V:4] D,8 | 
[V:1] F2A3FF2- | 
[V:2] z8 | 
[V:3] _B2A2F2A2- | 
[V:4] z2D,2D,3C, | 
[V:1] F2EDC4- | 
[V:2] z4z2e2 | 
[V:3] A2G2A4 | 
[V:4] _B,,2B,,2A,,4 | 
[V:1] C4z4 | 
[V:2] f2e2c2e2- | 
[V:3] z8 | 
[V:4] z2E,2F,2E,2 | 
[V:1] z4c4 | 
[V:2] edc2c2BA | 
[V:3] z4A4 | 
[V:4] C,2F,3G,A,2 | 
[V:1] BAGFE2F2 | 
[V:2] G2G2A3B | 
[V:3] B2B2c2A2- | 
[V:4] E,4C,2D,2 | 
[V:1] E2D4^C2 | 
[V:2] c2A2A4 | 
[V:3] AGF2E4 | 
[V:4] C,2D,2A,,2A,,2 | 
[V:1] D4z4 | 
[V:2] A8 | 
[V:3] D4F2FG | 
[V:4] D,4z4 | 
[V:1] z8 | 
[V:2] z8 | 
[V:3] A2A2G2E2 | 
[V:4] C,2C,D,E,2E,2 | 
[V:1] z8 | 
[V:2] z8 | 
[V:3] F2G4FE | 
[V:4] D,2B,,2C,2D,2- | 
[V:1] F2FGA2A2 | 
[V:2] z4c2cd | 
[V:3] D4F2F2 | 
[V:4] D,2C,B,,A,,3B,, | 
[V:1] G2E2F2G2- | 
[V:2] e2e2d2B2 | 
[V:3] E2A2A2G2 | 
[V:4] C,4D,2E,2- | 
[V:1] G2F4E2 | 
[V:2] c2d4c2- | 
[V:3] E2F2G2G2 | 
[V:4] E,2D,3A,,C,2 | 
[V:1] F4E3F | 
[V:2] c2B2c4 | 
[V:3] F2FGA2A2 | 
[V:4] D,4C,3D, | 
[V:1] G2G2F2D2 | 
[V:2] B3cd2d2 | 
[V:3] G2E2F2G2 | 
[V:4] E,2E,2D,2B,,2 | 
[V:1] E2F2D2E2- | 
[V:2] c2A2B2c2 | 
[V:3] G2F2G2E2 | 
[V:4] C,2D,2B,,2A,,2- | 
[V:1] E2D4C2 | 
[V:2] A2B4A2- | 
[V:3] C2D2E2F2 | 
[V:4] A,,2G,,2A,,4 | 
[V:1] D2B,2C4 | 
[V:2] A2G2A4 | 
[V:3] E2D2E4 | 
[V:4] B,,4A,,4- | 
[V:1] C4z2F2- | 
[V:2] A4z2F2- | 
[V:3] E4z2F2- | 
[V:4] A,,4z2D,2- | 
[V:1] F2F2F2F2 | 
[V:2] F2F2A3B | 
[V:3] F2F2F2F2 | 
[V:4] D,2D,2D,2D,2 | 
[V:1] E4z2A2- | 
[V:2] c4z2A2- | 
[V:3] G4z2F2- | 
[V:4] C,4z2D,2- | 
[V:1] A2A2A2A2 | 
[V:2] A2A2A4 | 
[V:3] F2F2F4 | 
[V:4] D,2D,2D,2F,2 | 
[V:1] G2FEF2E2- | 
[V:2] B2c2d2c2- | 
[V:3] G4A2G2- | 
[V:4] E,4D,2E,2 | 
[V:1] E2D4^C2 | 
[V:2] cBAGA4 | 
[V:3] G2F2E4 | 
[V:4] C,2D,2A,,4 | 
[V:1] D4z4 | 
[V:2] A8 | 
[V:3] D4z2A2- | 
[V:4] D,8 | 
[V:1] A4F4 | 
[V:2] z4d4 | 
[V:3] A2F4D2- | 
[V:4] z2D,4B,,2- | 
[V:1] D4G4 | 
[V:2] B4G4 | 
[V:3] D2G4E2- | 
[V:4] B,,2G,,4C,2- | 
[V:1] E4A4 | 
[V:2] c4A4 | 
[V:3] E2A4F2 | 
[V:4] C,2A,,4D,2- | 
[V:1] F2_B3AA2- | 
[V:2] d3ef2f2 | 
[V:3] _B2G2A4 | 
[V:4] D,2G,2F,4 | 
[V:1] A2G2A4 | 
[V:2] d2e2f4- | 
[V:3] _B4A4 | 
[V:4] G,4D,4- | 
[V:1] z4d4 | 
[V:2] f4z4 | 
[V:3] z2d4B2- | 
[V:4] D,4z2G,2- | 
[V:1] B4G4 | 
[V:2] g4e4 | 
[V:3] B2G4c2- | 
[V:4] G,2E,4C,2- | 
[V:1] c4A4 | 
[V:2] c4f4 | 
[V:3] c2A4d2- | 
[V:4] C,2F,4D,2- | 
[V:1] d4B2e2- | 
[V:2] d4g2e2 | 
[V:3] d2B2e3c | 
[V:4] D,2G,2E,2A,2 | 
[V:1] e2d4^c2 | 
[V:2] f2g2a3g | 
[V:3] d4e4 | 
[V:4] F,2_B,2A,4 | 
[V:1] d4z2d2 | 
[V:2] f4z2g2 | 
[V:3] d4z2B2 | 
[V:4] D,4z2G,2 | 
[V:1] c2A2B4 | 
[V:2] e2f4e2 | 
[V:3] c2d2B4 | 
[V:4] A,2F,2G,4 | 
[V:1] A4z2A2 | 
[V:2] f2F3GA2 | 
[V:3] c4z2F2 | 
[V:4] F,4z2F,2 | 
[V:1] G2E2F4 | 
[V:2] B2c4B2 | 
[V:3] G2A2F3G | 
[V:4] E,2C,2D,4 | 
[V:1] E4F4 | 
[V:2] c4z2F2 | 
[V:3] A4z2D2 | 
[V:4] A,,4D,4 | 
[V:1] E2C2D4 | 
[V:2] G2A4^G2 | 
[V:3] E2F2E2D2 | 
[V:4] C,2A,,2B,,4 | 
[V:1] C3DEFE2- | 
[V:2] A4z2A2 | 
[V:3] E4C4 | 
[V:4] A,,4z2A,,2 | 
[V:1] E2D4^C2 | 
[V:2] F3GA4- | 
[V:3] D4E4 | 
[V:4] _B,,4A,,4 | 
[V:1] D8 | 
[V:2] A4a4 | 
[V:3] D8 | 
[V:4] z2A,4F,2- | 
[V:1] z4d4 | 
[V:2] f4d4 | 
[V:3] z2d4B2- | 
[V:4] F,2D,4G,2- | 
[V:1] B4G4 | 
[V:2] g4e4 | 
[V:3] B2G4c2- | 
[V:4] G,2E,4C,2- | 
[V:1] c4A4 | 
[V:2] c4f2f2 | 
[V:3] c2A4d2 | 
[V:4] C,2F,4D,2- | 
[V:1] B4z2G2 | 
[V:2] d4e4 | 
[V:3] B2B2c3B | 
[V:4] D,2G,2E,4 | 
[V:1] A2E2F4 | 
[V:2] d2c2c2B2 | 
[V:3] A2G2G2F2 | 
[V:4] F,2E,2D,2D,2 | 
[V:1] E8 | 
[V:2] c4z2c2 | 
[V:3] G4z2G2 | 
[V:4] C,4z2C,2 | 
[V:1] z8 | 
[V:2] B2A4^G2 | 
[V:3] F2E4D2 | 
[V:4] D,2A,,2B,,4 | 
[V:1] z4z2F2 | 
[V:2] A3BcAB2- | 
[V:3] E3FGEF2- | 
[V:4] A,,B,,C,D,E,C,D,2- | 
[V:1] F2C2D4 | 
[V:2] B2A4^G2 | 
[V:3] F2E4D2 | 
[V:4] D,C,B,,A,,B,,4 | 
[V:1] C4c3B | 
[V:2] A2c6 | 
[V:3] E4z4 | 
[V:4] A,,3B,,C,D,E,2 | 
[V:1] A2G2F2E2 | 
[V:2] BAe2d2c2 | 
[V:3] c3BA2G2 | 
[V:4] F,2C,2D,2E,2 | 
[V:1] F3ED2C2 | 
[V:2] d3cBAA2- | 
[V:3] A3GF2E2- | 
[V:4] D,6A,,2 | 
[V:1] D2F4ED | 
[V:2] A2^G^F^G3^F | 
[V:3] E2DCD4 | 
[V:4] B,,8 | 
[V:1] E8 ||  
[V:2] A8 ||  
[V:3] E8 ||  
[V:4] A,,8 ||  
[V:1]  [K:C] [M:2/1]z8 | 
[V:2]  [K:C] [M:2/1]d8 | 
[V:3]  [K:C] [M:2/1]z8 | 
[V:4]  [K:C] [M:2/1]z8 | 
[V:1] z8 | 
[V:2] d4d4 | 
[V:3] z8 | 
[V:4] D,8 | 
[V:1] A8 | 
[V:2] f6e2 | 
[V:3] z8 | 
[V:4] D,4D,4 | 
[V:1] A4A4 | 
[V:2] d2f4ed | 
[V:3] z8 | 
[V:4] F,8 | 
[V:1] c6B2 | 
[V:2] c8 | 
[V:3] A8 | 
[V:4] F,4C,4 | 
[V:1] A2c4BA | 
[V:2] z2c4d2 | 
[V:3] A4A4 | 
[V:4] F,8 | 
[V:1] G8 | 
[V:2] e6e2 | 
[V:3] c6B2 | 
[V:4] E,2E,2C,4- | 
[V:1] z2G4A2 | 
[V:2] e3de2f2 | 
[V:3] A2c4BA | 
[V:4] C,2C,2C,2F,2 | 
[V:1] B6B2 | 
[V:2] g8 | 
[V:3] G8 | 
[V:4] E,8 | 
[V:1] B3AB2c2 | 
[V:2] e8 | 
[V:3] z2G4A2 | 
[V:4] z2E,3D,C,2 | 
[V:1] d6c2 | 
[V:2] d4z2f2- | 
[V:3] B4z2A2- | 
[V:4] B,,4D,4 | 
[V:1] B4A4 | 
[V:2] f2e4d2 | 
[V:3] A2G2A3B | 
[V:4] E,4F,4 | 
[V:1] G3ABcB2- | 
[V:2] e4e2g2- | 
[V:3] cde3cd2- | 
[V:4] E,3F,G,A,G,2- | 
[V:1] B2A4^G2 | 
[V:2] gfd2e4 | 
[V:3] dcBAB4 | 
[V:4] G,A,F,2E,4 | 
[V:1] A8- | 
[V:2] c8 | 
[V:3] A8 | 
[V:4] A,,8 | 
[V:1] A8 | 
[V:2] A6B2 | 
[V:3] z4F4 | 
[V:4] D,8 | 
[V:1] E6E2 | 
[V:2] c8 | 
[V:3] G6G2 | 
[V:4] C,6C,2 | 
[V:1] E3DE2F2 | 
[V:2] c4c4 | 
[V:3] A8 | 
[V:4] A,,3B,,C,2D,2 | 
[V:1] G6F2 | 
[V:2] B2c3BB2- | 
[V:3] G3FE2D2- | 
[V:4] E,2C,4D,2 | 
[V:1] E4D4 | 
[V:2] BAA4^G2 | 
[V:3] D2C2D4 | 
[V:4] A,,4B,,4 | 
[V:1] C3DEFE2- | 
[V:2] A6c2- | 
[V:3] E2A3FG2- | 
[V:4] A,,3B,,C,D,C,2- | 
[V:1] E2D4^C2 | 
[V:2] cBG2A4 | 
[V:3] GFEDE4 | 
[V:4] C,D,B,,2A,,4 | 
[V:1] D8- | 
[V:2] A8 | 
[V:3] D2d3cBA | 
[V:4] D,8- | 
[V:1] D4z2A2 | 
[V:2] z2d2e2f2 | 
[V:3] B4A4 | 
[V:4] D,4z4 | 
[V:1] B2c2d2e2- | 
[V:2] g2a2g2e2 | 
[V:3] G4z4 | 
[V:4] z8 | 
[V:1] edd4^c2 | 
[V:2] f2g2e4 | 
[V:3] z4z2E2 | 
[V:4] z4A,,4 | 
[V:1] d4z4 | 
[V:2] d8- | 
[V:3] F2G2A2B2- | 
[V:4] D,4D,2D,2- | 
[V:1] z8 | 
[V:2] d8 | 
[V:3] BAA4^G2 | 
[V:4] D,C,B,,A,,B,,2B,,2 | 
[V:1] z4z2A2 | 
[V:2] c3de2f2 | 
[V:3] A4z2A2 | 
[V:4] A,,2A,3G,F,2 | 
[V:1] B2c2d2e2- | 
[V:2] g2e2f2e2 | 
[V:3] e4d2c2 | 
[V:4] E,2A,2D,2A,2 | 
[V:1] edd4^c2 | 
[V:2] f2g2a4 | 
[V:3] d4e4 | 
[V:4] F,2_B,2A,4 | 
[V:1] d4z4 | 
[V:2] z2f3ga2 | 
[V:3] z2d4c2 | 
[V:4] D,4z4 | 
[V:1] d6c2 | 
[V:2] d2g4f2- | 
[V:3] B4A4 | 
[V:4] G,4D,4 | 
[V:1] B4A4 | 
[V:2] f2e4d2 | 
[V:3] F2G2A3B | 
[V:4] E,4F,4 | 
[V:1] G4z2A2- | 
[V:2] e4z2d2- | 
[V:3] c4z2A2- | 
[V:4] C,3D,E,2F,2- | 
[V:1] AEG2F4 | 
[V:2] d2c4B2 | 
[V:3] AGE2F4 | 
[V:4] F,E,C,2D,4 | 
[V:1] E4z4 | 
[V:2] c4z4 | 
[V:3] G4z2A2- | 
[V:4] C,3D,E,2F,2- | 
[V:1] z8 | 
[V:2] z8 | 
[V:3] AEG2F4 | 
[V:4] F,2E,4D,2- | 
[V:1] z4z2A2- | 
[V:2] z2e2f3e | 
[V:3] E4D4 | 
[V:4] D,2C,2D,2F,2- | 
[V:1] AEG2F4 | 
[V:2] dcc4B2 | 
[V:3] z2E2F4 | 
[V:4] F,E,C,2D,4 | 
[V:1] E4z4 | 
[V:2] c3de2f2- | 
[V:3] G4z2A2- | 
[V:4] C,2E,4D,2- | 
[V:1] z4A4 | 
[V:2] f2e2A2d2- | 
[V:3] AEG2F4 | 
[V:4] D,2C,2D,4 | 
[V:1] G2E2F2E2- | 
[V:2] d2c2d2B2 | 
[V:3] E4D2G2- | 
[V:4] z2A,,2D,2E,2 | 
[V:1] E2D4^C2 | 
[V:2] c2A2A4- | 
[V:3] G2F2E4 | 
[V:4] C,2D,2A,,2A,,2 | 
[V:1] D4z4 | 
[V:2] A2F3GA_B | 
[V:3] D4z2D2 | 
[V:4] D,8 | 
[V:1] z8 | 
[V:2] A2d4^c2 | 
[V:3] F4E4 | 
[V:4] D,4A,,4 | 
[V:1] z8 | 
[V:2] d8 | 
[V:3] DEFGA2_B2 | 
[V:4] z4D,4 | 
[V:1] z8 | 
[V:2] z8 | 
[V:3] A2d4^c2 | 
[V:4] F,4E,4 | 
[V:1] z4D4 | 
[V:2] z8 | 
[V:3] d4z2f2- | 
[V:4] D,4z2D,2- | 
[V:1] F4E4 | 
[V:2] z8 | 
[V:3] fed4^c2 | 
[V:4] D,E,F,G,A,2A,2 | 
[V:1] DEFGA2_B2 | 
[V:2] z4d4 | 
[V:3] d4z4 | 
[V:4] D,8- | 
[V:1] A2d4c2 | 
[V:2] f4e4 | 
[V:3] z4z2A2 | 
[V:4] D,4z4 | 
[V:1] d4z2A2 | 
[V:2] d2g4^f2 | 
[V:3] B3cd4 | 
[V:4] z8 | 
[V:1] B3cd4 | 
[V:2] g4z4 | 
[V:3] G3ABcd2 | 
[V:4] z8 | 
[V:1] G3ABcd2- | 
[V:2] z8 | 
[V:3] e3cdef2 | 
[V:4] z4z2D,2 | 
[V:1] dcc3BBA | 
[V:2] z4z2d2 | 
[V:3] e4d4 | 
[V:4] E,2F,2G,4 | 
[V:1] c4z4 | 
[V:2] e3fg4 | 
[V:3] c4z4 | 
[V:4] C,2C4B,2 | 
[V:1] z8 | 
[V:2] c2f4e2 | 
[V:3] z8 | 
[V:4] A,4G,4 | 
[V:1] z8 | 
[V:2] f4d2e2 | 
[V:3] z8 | 
[V:4] F,4G,2E,2 | 
[V:1] z8 | 
[V:2] edcBA2d2- | 
[V:3] z8 | 
[V:4] A,3G,F,E,D,2 | 
[V:1] z8 | 
[V:2] dcBAG2B2- | 
[V:3] z8 | 
[V:4] G,3F,E,2D,2- | 
[V:1] z8 | 
[V:2] B2A4G2 | 
[V:3] z8 | 
[V:4] D,C,B,,A,,B,,4 | 
[V:1] z8 | 
[V:2] ABcdefg2 | 
[V:3] z2c4B2 | 
[V:4] A,,3B,,C,D,E,2 | 
[V:1] z8 | 
[V:2] f2e4d2 | 
[V:3] A2G2F2F2 | 
[V:4] F,2C,2D,4 | 
[V:1] z8 | 
[V:2] e2c3cc2 | 
[V:3] E2A3Bc2 | 
[V:4] C,2F,4E,2 | 
[V:1] z8 | 
[V:2] cd/e/f4ed | 
[V:3] B2A4^G2 | 
[V:4] D,C,B,,A,,B,,4 | 
[V:1] z2c4B2 | 
[V:2] c8 | 
[V:3] A8- | 
[V:4] A,,8 | 
[V:1] A2G2F2F2 | 
[V:2] z8 | 
[V:3] A8 | 
[V:4] z4D,4 | 
[V:1] E2A3Bc2 | 
[V:2] z2f4e2 | 
[V:3] z8 | 
[V:4] C,2F,3E,C,2 | 
[V:1] B2A4^G2 | 
[V:2] d2c2B2B2 | 
[V:3] z8 | 
[V:4] G,2A,2E,4 | 
[V:1] A8 | 
[V:2] A2d3ef2 | 
[V:3] z8 | 
[V:4] F,3E,F,G,A,2 | 
[V:1] z8 | 
[V:2] e2d4^c2 | 
[V:3] z8 | 
[V:4] G,2F,2E,4 | 
[V:1] z4A4 | 
[V:2] d4z4 | 
[V:3] A4d4- | 
[V:4] D,4z4 | 
[V:1] d6c2 | 
[V:2] z4d4 | 
[V:3] d2c2B4- | 
[V:4] D,4G,4- | 
[V:1] B6A2 | 
[V:2] g6f2 | 
[V:3] B2A2G4- | 
[V:4] G,2F,2E,4- | 
[V:1] G8 | 
[V:2] e6d2 | 
[V:3] G4z4 | 
[V:4] E,2D,2C,4- | 
[V:1] z8 | 
[V:2] c8 | 
[V:3] z4c4- | 
[V:4] C,4z4 | 
[V:1] c6B2 | 
[V:2] z4A3B | 
[V:3] c2B2A2G2 | 
[V:4] z4A,,4- | 
[V:1] A2G2F2E2- | 
[V:2] c2c2d2B2 | 
[V:3] F2E2D2G2- | 
[V:4] A,,2A,,2D,2E,2 | 
[V:1] EDD4^C2 | 
[V:2] c2A2A4 | 
[V:3] G2F2E4 | 
[V:4] C,2D,2A,,4 | 
[V:1] D8 | 
[V:2] f3ed2cB | 
[V:3] D8- | 
[V:4] D,6E,2 | 
[V:1] z8 | 
[V:2] A4z4 | 
[V:3] D8 | 
[V:4] F,3G,A,4 | 
[V:1] z4A2AA | 
[V:2] d2ddA2AB | 
[V:3] z8 | 
[V:4] D,8 | 
[V:1] E2EFG2G2 | 
[V:2] c4B4 | 
[V:3] z8 | 
[V:4] z8 | 
[V:1] A8 | 
[V:2] A4z4 | 
[V:3] z4A2AA | 
[V:4] D,2D,D,A,,2A,,B,, | 
[V:1] z8 | 
[V:2] z8 | 
[V:3] E2EFG4 | 
[V:4] C,4B,,4 | 
[V:1] z8 | 
[V:2] z8 | 
[V:3] A3Bc2B2- | 
[V:4] A,,B,,C,D,E,C,D,2- | 
[V:1] z8 | 
[V:2] z8 | 
[V:3] B2A4^G2 | 
[V:4] D,2C,2B,,4 | 
[V:1] z4A2AA | 
[V:2] e2eeA2AB | 
[V:3] A4z4 | 
[V:4] A,,8 | 
[V:1] E2EFG2G2 | 
[V:2] c4B4 | 
[V:3] z4e4 | 
[V:4] A,4E,4 | 
[V:1] A3Bc2B2- | 
[V:2] ABcdefg2- | 
[V:3] c6d2- | 
[V:4] A,6G,2- | 
[V:1] BAA4^G2 | 
[V:2] gfede4 | 
[V:3] d2c2B4 | 
[V:4] G,2A,2E,4 | 
[V:1] A8- | 
[V:2] c6d2 | 
[V:3] A4F4 | 
[V:4] A,,6B,,2 | 
[V:1] A8 | 
[V:2] e4f4 | 
[V:3] E4z4 | 
[V:4] C,4D,4 | 
[V:1] z4c2BG | 
[V:2] e8 | 
[V:3] c2BGA2G2 | 
[V:4] A,,4z4 | 
[V:1] A2G2F2E2 | 
[V:2] z8 | 
[V:3] F2E2A2GE | 
[V:4] z8 | 
[V:1] A2GEF2E2- | 
[V:2] z8 | 
[V:3] F2E2A3B | 
[V:4] z8 | 
[V:1] E2A4^G2 | 
[V:2] z8 | 
[V:3] c2d2B4 | 
[V:4] z8 | 
[V:1] A4z4 | 
[V:2] z4f2ec | 
[V:3] A4z4 | 
[V:4] F,2E,C,D,2C,2 | 
[V:1] z8 | 
[V:2] d2c2B2A2 | 
[V:3] z8 | 
[V:4] B,,2A,,2D,2C,A,, | 
[V:1] z8 | 
[V:2] d2cAB2A2- | 
[V:3] z8 | 
[V:4] B,,2A,,2D,3E, | 
[V:1] z8 | 
[V:2] A2d4c2 | 
[V:3] z8 | 
[V:4] F,2G,2E,4 | 
[V:1] z8 | 
[V:2] d3Bc2d2- | 
[V:3] z8 | 
[V:4] D,E,F,G,A,2B,2- | 
[V:1] z8 | 
[V:2] dcBAB4 | 
[V:3] z8 | 
[V:4] B,A,A,4^G,2 | 
[V:1] z4c2BG | 
[V:2] A4z4 | 
[V:3] c2BGA2G2 | 
[V:4] A,4z4 | 
[V:1] A2G2F2E2 | 
[V:2] z8 | 
[V:3] F2E2A2GE | 
[V:4] z8 | 
[V:1] A2GEF2E2- | 
[V:2] A6c2 | 
[V:3] F2E2D2C2 | 
[V:4] A,,2C,2D,2A,,2 | 
[V:1] E2D4^C2 | 
[V:2] F2G2A4 | 
[V:3] D4E4 | 
[V:4] _B,,4A,,4 | 
[V:1] D4z2A2 | 
[V:2] A2f4ed | 
[V:3] D8 | 
[V:4] D,4F,4- | 
[V:1] A2A2G2G2 | 
[V:2] c2d4c2 | 
[V:3] z8 | 
[V:4] F,2E,D,E,4 | 
[V:1] F2A4GF | 
[V:2] d4z4 | 
[V:3] z4z2A2 | 
[V:4] D,4z4 | 
[V:1] E2F4E2 | 
[V:2] z8 | 
[V:3] A2A2G2G2 | 
[V:4] z8 | 
[V:1] F4z4 | 
[V:2] z2f4f2 | 
[V:3] F4z4 | 
[V:4] D,6C,B,, | 
[V:1] z8 | 
[V:2] f2f2e2e2 | 
[V:3] z8 | 
[V:4] A,,2D,4C,2 | 
[V:1] z8 | 
[V:2] d2f4ed | 
[V:3] z8 | 
[V:4] F,6F,2 | 
[V:1] z8 | 
[V:2] c2d4^c2 | 
[V:3] z8 | 
[V:4] F,2F,2E,4 | 
[V:1] z2F4F2 | 
[V:2] d6cB | 
[V:3] z8 | 
[V:4] D,6D,2 | 
[V:1] F2F2E2E2 | 
[V:2] A2d4^c2 | 
[V:3] z8 | 
[V:4] D,2D,2A,4 | 
[V:1] D2F4ED | 
[V:2] d4z2A2- | 
[V:3] F6F2 | 
[V:4] D,4z2D,2 | 
[V:1] C2D4^C2 | 
[V:2] A2G2A4 | 
[V:3] F2D2E2E2 | 
[V:4] A,,2_B,,2A,,4 | 
[V:1] D4z4 | 
[V:2] A8 | 
[V:3] D8 | 
[V:4] D,8- | 
[V:1] A6A2 | 
[V:2] z8 | 
[V:3] z4A4- | 
[V:4] D,8 | 
[V:1] A2A2E3F | 
[V:2] z8 | 
[V:3] A2A2A2A2 | 
[V:4] z8 | 
[V:1] G2A2B2c2 | 
[V:2] z8 | 
[V:3] E3FG2A2 | 
[V:4] z8 | 
[V:1] d2cBA2c2- | 
[V:2] z8 | 
[V:3] B2c2d2A2 | 
[V:4] z8 | 
[V:1] cBA4^G2 | 
[V:2] z8 | 
[V:3] c4B4 | 
[V:4] z8 | 
[V:1] A8- | 
[V:2] d6d2 | 
[V:3] A8 | 
[V:4] D,8 | 
[V:1] A8 | 
[V:2] d2d2A3B | 
[V:3] z8 | 
[V:4] D,2D,2D,2D,2 | 
[V:1] z8 | 
[V:2] c2d2e2f2 | 
[V:3] z8 | 
[V:4] A,,3B,,C,2D,2 | 
[V:1] z8 | 
[V:2] g2fed2f2- | 
[V:3] z8 | 
[V:4] E,2F,2G,2D,2 | 
[V:1] z8 | 
[V:2] fed4^c2 | 
[V:3] z8 | 
[V:4] F,4E,4 | 
[V:1] A4A2A2 | 
[V:2] d8 | 
[V:3] z4A4 | 
[V:4] D,8 | 
[V:1] A2A2E3F | 
[V:2] z8 | 
[V:3] A2A2A2A2 | 
[V:4] A,,8 | 
[V:1] G2A2D2F2- | 
[V:2] z8 | 
[V:3] E3FG2A2 | 
[V:4] z8 | 
[V:1] F2EDC2E2- | 
[V:2] z4z2c2- | 
[V:3] D2E2F2G2 | 
[V:4] z4z2C,2- | 
[V:1] EDD4^C2 | 
[V:2] cBG2A4 | 
[V:3] F2EDE4 | 
[V:4] C,D,B,,2A,,4 | 
[V:1] D4F4 | 
[V:2] A4d4- | 
[V:3] D4z2A2- | 
[V:4] D,6D,2 | 
[V:1] F2F2F4 | 
[V:2] d2cBA2B2 | 
[V:3] A2A2F3G | 
[V:4] D,4D,4 | 
[V:1] E6F2 | 
[V:2] c4c2d2 | 
[V:3] A6GF | 
[V:4] A,,4C,4- | 
[V:1] G2A2B4 | 
[V:2] e3cd4 | 
[V:3] E2A4^G2 | 
[V:4] C,4B,,4 | 
[V:1] c6B2 | 
[V:2] c2c2c2d2- | 
[V:3] A8 | 
[V:4] A,,4F,4 | 
[V:1] A2G2F4 | 
[V:2] d2c4B2 | 
[V:3] F4F2G2 | 
[V:4] F,2E,2D,2D,2 | 
[V:1] E4c4- | 
[V:2] c6c2 | 
[V:3] A8 | 
[V:4] C,4C,4 | 
[V:1] c2B2A4 | 
[V:2] c4d4 | 
[V:3] A6B2 | 
[V:4] F,4F,4 | 
[V:1] G4A4- | 
[V:2] e4c2d2- | 
[V:3] c4z2F2- | 
[V:4] E,4F,4 | 
[V:1] A2G2F4 | 
[V:2] dcc4B2 | 
[V:3] F2E2F2G2 | 
[V:4] C,4D,4 | 
[V:1] E4F4- | 
[V:2] c4A2_B2- | 
[V:3] A4z2D2- | 
[V:4] C,4D,4 | 
[V:1] F2E2D4 | 
[V:2] BAA4G2 | 
[V:3] D2C2D2D2 | 
[V:4] A,,4_B,,4 | 
[V:1] !fermata!^C16 | 
[V:2] !fermata!A16 | 
[V:3] !fermata!E16 | 
[V:4] !fermata!A,,16 | 
[V:1] D8 |]  
[V:2] A8 |]  
[V:3] D8 |]  
[V:4] D,8 |]  



